X:16383
T:Tengo de ponete un ramo (MQ 009)
C:Tradicional
S:Música Tradicional Asturiana, (C) Tello & Tito. Asturies, 2001.
S:http://pagina.de/MusTradAst <telloytito@asturies.org>
N:Típica canción de ronda, aunque yo ya la he oído algunas veces cantar mientras un corro bailaba una especie de danza prima.
N:No es de ninguna zona determinada pues se canta por casi toda la región.
N:B. Fernández la armonizó para voz y piano.
A:Asturies
B:Cancioneru de Baldomero Fernández
Z:Manolo Quirós 009
M:3/4
L:1/8
Q:1/4=100
K:Am
E/E/
|: AAcBAA|c2 B B/c/ dc|B2 B3 B/c/|ddee c/d/c/B/|A2 B2 G/A/G/F/|[1 E4 z
E/E/ :|[2 E6|


